X:160
T:The Derry reel
R:reel
M:4/4
L:1/8
K:A
c3 B ABcA | B2 cB AFEF | ABce aA gA | faec BcAB |
c3 B ABcA | B2 cB AFEF |1 ABce a2ec | BAcB A2 AB :|2  ABce fece | fege a2 ag |:
f3e c3f | geBe g2ag | f3e cfaf | gfeg f2fg | aecB ABcA |
B2cB AFEF |1 ABce fece | fege a2 ag :|2 ABce a2 ec BAcB A2 AB |]
